X: 35747
T: Salamanca, The
R: reel
M: 4/4
K: Dmajor
|:dB|ADFD ADFD|Adcd fdcd|BEGE BEGE|Bded cdeg|
fBAB fBAB|fafc deag|fdec dBAG|FGEF D2:|
|:fg|afdg bgeg|fdec dcBc|ABcd defg|a2^gb a2f=g|
afff geee|fdec dfag|fdec dBAG|FGEF D2:|

